X: 7509
T: Coast River
R: reel
M: 4/4
K: Edorian
FGED DEAG|FGAd ~B3e|dfeB BdcA|BdcA dcAG|
FAED E2AG|FGAd ~B3e|dfeB BdcA|(3Bcd cA dcAG||

